img/omisego-blue.svg

<?xml version="1.0" encoding="UTF-8"?>
<svg width="110px" height="40px" viewBox="0 0 110 40" version="1.1" xmlns="http://www.w3.org/2000/svg" xmlns:xlink="http://www.w3.org/1999/xlink">
    <!-- Generator: Sketch 47.1 (45422) - http://www.bohemiancoding.com/sketch -->
    <title>OmiseGO_Color</title>
    <desc>Created with Sketch.</desc>
    <defs></defs>
    <g id="Assets" stroke="none" stroke-width="1" fill="none" fill-rule="evenodd">
        <g id="OmiseGO_Color" fill-rule="nonzero">
            <g id="OmiseGO">
                <g id="Group" fill="#2E374D">
                    <path d="M7.70987179,22.3751825 C3.35217949,22.3751825 0.0211538462,19.6095985 0.0211538462,14.6463504 C0.0211538462,9.68310219 3.50730769,6.81788321 7.8974359,6.81788321 C12.2875641,6.81788321 15.5551282,9.64609489 15.5551282,14.5467153 C15.5551282,19.4473358 12.0365385,22.3751825 7.70987179,22.3751825 Z M7.77192308,10.4986861 C5.77923077,10.4986861 4.78358974,12.1013869 4.78358974,14.6150365 C4.78358974,17.1286861 5.81025641,18.6673358 7.80294872,18.6673358 C9.79564103,18.6673358 10.7912821,17.1016423 10.7912821,14.5837226 C10.7912821,12.0985401 9.76320513,10.5001095 7.77051282,10.5001095 L7.77192308,10.4986861 Z" id="Shape"></path>
                    <path d="M35.4764103,13.2955839 C35.4764103,11.5363139 34.7289744,10.939927 33.5147436,10.939927 C32.5501282,10.939927 31.7716667,11.3797445 31.1807692,11.8821898 L31.1807692,21.9040511 L26.3858974,21.9040511 L26.3858974,13.2955839 C26.3858974,11.5363139 25.6074359,10.939927 24.3932051,10.939927 C23.5365098,10.939106 22.7080987,11.2492992 22.0592308,11.8138686 L22.0592308,21.8983577 L17.264359,21.8983577 L17.264359,7.11678832 L22.0592308,7.10824818 L22.0592308,8.98850365 C23.3355128,7.63773723 24.7669231,6.82072993 26.6665385,6.82072993 C28.4998718,6.82072993 30.0285897,7.70036496 30.745,9.42832117 C32.0833333,7.82562044 33.764359,6.82072993 35.7570513,6.82072993 C38.5902564,6.82072993 40.2698718,8.73656934 40.2698718,11.8793431 L40.2698718,21.9012044 L35.475,21.9012044 L35.4764103,13.2955839 Z" id="Shape"></path>
                    <path d="M45.094359,5.22087591 C43.3512821,5.22087591 42.2625641,4.30992701 42.2625641,2.64459854 C42.2625641,0.916642336 43.3512821,0.0370072993 45.094359,0.0370072993 C46.8684615,0.0370072993 47.9275641,0.916642336 47.9275641,2.64459854 C47.9275641,4.30992701 46.8684615,5.22087591 45.094359,5.22087591 Z M42.6969231,7.12105839 L47.4917949,7.11251825 L47.4917949,21.9040511 L42.6969231,21.9040511 L42.6969231,7.12105839 Z" id="Shape"></path>
                    <path d="M55.2341026,22.3751825 C53.2414103,22.3751825 50.6267949,21.935365 49.1023077,21.0870438 L50.0358974,17.5998175 C51.7479487,18.4794526 53.6165385,18.9818978 55.3271795,18.9818978 C56.6344872,18.9818978 57.2888462,18.5733942 57.2888462,17.7877007 C57.2888462,16.9336861 56.479359,16.6561314 54.829359,16.280365 C51.4673077,15.5886131 49.3194872,14.3645255 49.3194872,11.505 C49.3194872,8.77215328 51.6844872,6.82357664 55.7008974,6.82357664 C57.6301282,6.82357664 60.1516667,7.39291971 61.5844872,8.08040146 L60.6198718,11.5291971 C58.9698718,10.6751825 57.0082051,10.2097445 55.6388462,10.2097445 C54.455641,10.2097445 53.8647436,10.5869343 53.8647436,11.31 C53.8647436,12.0956934 54.7673077,12.4102555 56.3552564,12.754708 C59.7483333,13.5090876 61.8030769,14.6392336 61.8030769,17.5613869 C61.8016667,20.2116788 59.4987179,22.3751825 55.2341026,22.3751825 Z" id="Shape"></path>
                    <path d="M71.2024359,18.8253285 C72.7903846,18.8253285 74.4714103,18.2559854 75.9338462,17.4119343 L76.400641,21.1510949 C74.9382051,21.9054745 72.8834615,22.345292 70.7596154,22.345292 C65.8730769,22.345292 62.6661538,19.6124453 62.6661538,14.7104015 C62.6661538,9.9350365 65.9097436,6.825 70.51,6.825 C74.6194872,6.825 76.8561538,9.30733577 76.8561538,12.945438 C76.8561538,13.7311314 76.7630769,14.8925912 76.5444872,15.5217153 L67.3608974,15.6782847 L67.3608974,15.7409124 C67.5301282,17.725073 68.8374359,18.8253285 71.2024359,18.8253285 Z M72.4166667,12.9525547 C72.4166667,11.1932847 71.7002564,10.1556569 70.2067949,10.1556569 C68.5567949,10.1556569 67.5611538,11.600365 67.4046154,13.2656934 L72.4166667,13.2372263 L72.4166667,12.9525547 Z" id="Shape"></path>
                </g>
                <g id="Group" transform="translate(77.987179, 6.689781)" fill="#1A53F0">
                    <path d="M7.81564103,16.7329927 C3.55759641,16.7329927 0.105769231,20.2168873 0.105769231,24.5144891 C0.105769231,28.8120908 3.55759641,32.2959854 7.81564103,32.2959854 C12.0736856,32.2959854 15.5255128,28.8120908 15.5255128,24.5144891 C15.5255128,20.2168873 12.0736856,16.7329927 7.81564103,16.7329927 Z M7.81564103,29.9417518 C4.84583599,29.9417518 2.43833333,27.5118835 2.43833333,24.5144891 C2.43833333,21.5170946 4.84583599,19.0872263 7.81564103,19.0872263 C10.7854461,19.0872263 13.1929487,21.5170946 13.1929487,24.5144891 C13.189841,27.5108139 10.7843853,29.9392529 7.81564103,29.9431752 L7.81564103,29.9417518 Z" id="Shape"></path>
                    <path d="M24.2832051,0.13379562 C21.1648531,0.13379562 18.353554,2.02969634 17.1602124,4.93744224 C15.9668707,7.84518814 16.6264946,11.1921484 18.8315025,13.4176408 C21.0365104,15.6431332 24.3526637,16.308885 27.2336453,15.1044572 C30.114627,13.9000294 31.9930769,11.0626135 31.9930769,7.91529197 C31.9930769,3.61769021 28.5412497,0.13379562 24.2832051,0.13379562 L24.2832051,0.13379562 Z M24.2832051,13.3425547 C21.3134001,13.3425547 18.9058974,10.9126864 18.9058974,7.91529197 C18.9058974,4.91789751 21.3134001,2.4880292 24.2832051,2.4880292 C27.2530102,2.4880292 29.6605128,4.91789751 29.6605128,7.91529197 C29.6566283,10.9110609 27.2513996,13.3386341 24.2832051,13.3425547 L24.2832051,13.3425547 Z" id="Shape"></path>
                    <path d="M7.81564103,0.13379562 L7.81564103,0.13379562 C4.14463804,0.132381272 0.981179634,2.74218691 0.252213383,6.37350974 C-0.476752868,10.0048326 1.43073569,13.6516019 4.81277648,15.0924725 C8.19481727,16.5333431 12.1144041,15.3691167 14.1840112,12.3089549 C16.2536182,9.24879307 15.8998537,5.14052443 13.3382051,2.48660584 L15.5255128,2.48660584 L15.5255128,0.13379562 L7.81564103,0.13379562 Z M13.194359,7.91529197 C13.1935802,10.912501 10.7857327,13.3416553 7.81611136,13.3411313 C4.84648997,13.3406073 2.43948426,10.9106034 2.4397438,7.91339429 C2.44000333,4.91618514 4.84742985,2.48660594 7.81705128,2.48660584 C10.7857956,2.49052815 13.1912513,4.91896716 13.194359,7.91529197 L13.194359,7.91529197 Z" id="Shape"></path>
                </g>
            </g>
        </g>
    </g>
</svg>

<svg width="110" height="40" viewBox="0 0 110 40" xmlns="http://www.w3.org/2000/svg"><g fill="none"><path d="M7.71 22.375c-4.358 0-7.69-2.765-7.69-7.729 0-4.963 3.486-7.828 7.876-7.828 4.39 0 7.658 2.828 7.658 7.729 0 4.9-3.518 7.828-7.845 7.828zM7.772 10.5c-1.993 0-2.988 1.602-2.988 4.116 0 2.514 1.026 4.052 3.019 4.052s2.988-1.565 2.988-4.083c0-2.485-1.028-4.084-3.02-4.084V10.5zm27.704 2.796c0-1.76-.747-2.356-1.961-2.356-.965 0-1.743.44-2.334.942v10.022h-4.795v-8.608c0-1.76-.779-2.356-1.993-2.356a3.55 3.55 0 00-2.334.874v10.084h-4.795V7.117l4.795-.009v1.88c1.277-1.35 2.708-2.167 4.608-2.167 1.833 0 3.362.88 4.078 2.607 1.338-1.602 3.02-2.607 5.012-2.607 2.833 0 4.513 1.916 4.513 5.058v10.022h-4.795l.001-8.605zm9.618-8.076c-1.743 0-2.831-.91-2.831-2.575 0-1.728 1.088-2.608 2.831-2.608 1.774 0 2.834.88 2.834 2.608 0 1.665-1.06 2.576-2.834 2.576zm-2.397 1.901l4.795-.008v14.791h-4.795V7.121zm12.537 15.254c-1.993 0-4.607-.44-6.132-1.288l.934-3.487c1.712.88 3.58 1.382 5.291 1.382 1.307 0 1.962-.409 1.962-1.194 0-.854-.81-1.132-2.46-1.508-3.362-.691-5.51-1.915-5.51-4.775 0-2.733 2.365-4.681 6.382-4.681 1.93 0 4.45.569 5.883 1.256l-.964 3.45c-1.65-.855-3.612-1.32-4.981-1.32-1.183 0-1.774.377-1.774 1.1 0 .786.902 1.1 2.49 1.445 3.393.754 5.448 1.884 5.448 4.806-.001 2.65-2.304 4.814-6.569 4.814zm15.968-3.55c1.588 0 3.27-.569 4.732-1.413l.467 3.74c-1.463.753-3.518 1.193-5.641 1.193-4.887 0-8.094-2.733-8.094-7.635 0-4.775 3.244-7.885 7.844-7.885 4.11 0 6.346 2.482 6.346 6.12 0 .786-.093 1.948-.312 2.577l-9.183.156v.063c.17 1.984 1.476 3.084 3.841 3.084zm1.215-5.872c0-1.76-.717-2.797-2.21-2.797-1.65 0-2.646 1.444-2.802 3.11l5.012-.029v-.284z" fill="#2E374D"/><path d="M85.803 23.423c-4.258 0-7.71 3.484-7.71 7.781 0 4.298 3.452 7.782 7.71 7.782s7.71-3.484 7.71-7.782c0-4.297-3.452-7.781-7.71-7.781zm0 13.209c-2.97 0-5.377-2.43-5.377-5.428 0-2.997 2.407-5.427 5.377-5.427 2.97 0 5.377 2.43 5.377 5.427-.003 2.997-2.408 5.425-5.377 5.429v-.001zM102.27 6.824a7.709 7.709 0 00-7.123 4.803 7.834 7.834 0 001.672 8.48 7.658 7.658 0 008.402 1.687c2.88-1.204 4.76-4.042 4.76-7.189 0-4.298-3.453-7.781-7.71-7.781zm0 13.208c-2.97 0-5.377-2.43-5.377-5.427 0-2.997 2.408-5.427 5.377-5.427 2.97 0 5.378 2.43 5.378 5.427-.004 2.996-2.41 5.423-5.378 5.427zM85.803 6.824c-3.671-.002-6.835 2.608-7.564 6.24-.729 3.63 1.179 7.277 4.561 8.718a7.673 7.673 0 009.371-2.783 7.84 7.84 0 00-.846-9.823h2.188V6.824h-7.71zm5.379 7.781c-.001 2.997-2.41 5.426-5.379 5.426-2.97 0-5.376-2.43-5.376-5.428 0-2.997 2.408-5.427 5.377-5.427 2.969.004 5.374 2.433 5.378 5.43z" fill="#1A53F0"/></g></svg>
